X:1
T:Pear Tree, The
T:Pear Tree, The
T:James Hill
C:James Hill
L:1/8
M:2/2
K:F
V:1 treble 
V:1
 C | F(Ac)(B A)(cf)(a | g)beg afcB | AfcA GdBG | EFGE C2 C2 | F(Ac)(B A)(cf)(a | g)beg afcB | %7
 AfcA GdBE | G2 F2 [A,F]2 :: (fg) | a(^gaf) cfAf | dfcf dfcf | a(^gaf) cdef |{g} =g^fga g2 (=fg) | %14
 a(^gaf) cfAf | dfcf dfcf | (de)fd (ef)ge | [Af]2 [ca]2 [Af]2 :| %18

